src/pos-icons/bookmark-minus.svg

<svg height="24" viewBox="0 0 24 24" width="24" xmlns="http://www.w3.org/2000/svg"><path d="m17 3h-10a2 2 0 0 0 -2 2v16l7-3 7 3v-16a2 2 0 0 0 -2-2m-2 8h-6v-2h6z"/></svg>

<?xml version="1.0" encoding="UTF-8"?><!DOCTYPE svg PUBLIC "-//W3C//DTD SVG 1.1//EN" "http://www.w3.org/Graphics/SVG/1.1/DTD/svg11.dtd"><svg xmlns="http://www.w3.org/2000/svg" xmlns:xlink="http://www.w3.org/1999/xlink" version="1.1" id="mdi-bookmark-minus" width="24" height="24" viewBox="0 0 24 24"><path d="M17,3H7A2,2 0 0,0 5,5V21L12,18L19,21V5A2,2 0 0,0 17,3M15,11H9V9H15V11Z" /></svg>
